X:23
T:Riddar-Lasses l{\aa}t
R:polska J
A:H\"alsingland
Z:id:hn-jp-23
M:3/4
L:1/16
K:Dm
a4 D4 E4 | F2GF E2D^C D4 | a4 D4 E4 | F2GF E2D^C D4 |
A3^c d2e2 fefg | a2a2 ^ge^g=b a4 | a4 D4 E4 | F2GF E2D^C D4 |
a4 D4 E4 | F2GF E2D^C D4 | A3^c d2e2 fefg | a2^ce d8 :| 
|: ^f2a2 gage =c2e2 | ^f2a2 gage =c2e2 | a3g =b2g2 a2^f2 |
g^fed ^c2e^c A4 | ^f2a2 gage =c2e2 | ^f2a2 gage =c2e2 |
a3g =b2g2 a2^f2 | g^fe^c d8 :| 
<end>
<start>
